public/img/icon/general/transcripts-list.svg

<svg width="80" height="80" viewBox="0 0 80 80" fill="none" xmlns="http://www.w3.org/2000/svg">
<path d="M11.4286 12C9.54018 12 8 13.5453 8 15.44V63.6C8 65.4947 9.54018 67.04 11.4286 67.04H68.5714C70.4598 67.04 72 65.4947 72 63.6V15.44C72 13.5453 70.4598 12 68.5714 12H11.4286ZM11.4286 14.2933H68.5714C69.2009 14.2933 69.7143 14.8084 69.7143 15.44V63.6C69.7143 64.2316 69.2009 64.7467 68.5714 64.7467H11.4286C10.7991 64.7467 10.2857 64.2316 10.2857 63.6V15.44C10.2857 14.8084 10.7991 14.2933 11.4286 14.2933ZM61.7143 25.76C61.4241 25.76 61.1295 25.872 60.9062 26.0959L57.1429 29.8719L55.6652 28.3893C55.2188 27.9414 54.4955 27.9414 54.0491 28.3893C53.6027 28.8372 53.6027 29.5628 54.0491 30.0107L56.3348 32.3041C56.558 32.528 56.8482 32.64 57.1429 32.64C57.4375 32.64 57.7277 32.528 57.9509 32.3041L62.5223 27.7174C62.9688 27.2695 62.9688 26.5439 62.5223 26.0959C62.2991 25.872 62.0045 25.76 61.7143 25.76ZM18.2857 28.0533C17.6518 28.0533 17.1429 28.5684 17.1429 29.2C17.1429 29.8316 17.6518 30.3467 18.2857 30.3467H38.8571C39.4911 30.3467 40 29.8316 40 29.2C40 28.5684 39.4911 28.0533 38.8571 28.0533H18.2857ZM43.4286 28.0533C42.7946 28.0533 42.2857 28.5684 42.2857 29.2C42.2857 29.8316 42.7946 30.3467 43.4286 30.3467H48C48.6339 30.3467 49.1429 29.8316 49.1429 29.2C49.1429 28.5684 48.6339 28.0533 48 28.0533H43.4286ZM61.7143 34.9333C61.4241 34.9333 61.1295 35.0453 60.9062 35.2693L57.1429 39.0452L55.6652 37.5626C55.2188 37.1147 54.4955 37.1147 54.0491 37.5626C53.6027 38.0105 53.6027 38.7361 54.0491 39.1841L56.3348 41.4774C56.558 41.7014 56.8482 41.8133 57.1429 41.8133C57.4375 41.8133 57.7277 41.7014 57.9509 41.4774L62.5223 36.8907C62.9688 36.4428 62.9688 35.7172 62.5223 35.2693C62.2991 35.0453 62.0045 34.9333 61.7143 34.9333ZM18.2857 37.2267C17.6518 37.2267 17.1429 37.7418 17.1429 38.3733C17.1429 39.0049 17.6518 39.52 18.2857 39.52H48C48.6339 39.52 49.1429 39.0049 49.1429 38.3733C49.1429 37.7418 48.6339 37.2267 48 37.2267H18.2857ZM61.7143 44.1067C61.4241 44.1067 61.1295 44.2186 60.9062 44.4426L57.1429 48.2185L55.6652 46.7359C55.2188 46.288 54.4955 46.288 54.0491 46.7359C53.6027 47.1839 53.6027 47.9095 54.0491 48.3574L56.3348 50.6507C56.558 50.8747 56.8482 50.9867 57.1429 50.9867C57.4375 50.9867 57.7277 50.8747 57.9509 50.6507L62.5223 46.0641C62.9688 45.6161 62.9688 44.8905 62.5223 44.4426C62.2991 44.2186 62.0045 44.1067 61.7143 44.1067ZM18.2857 46.4C17.6518 46.4 17.1429 46.9151 17.1429 47.5467C17.1429 48.1782 17.6518 48.6933 18.2857 48.6933H29.7143C30.3482 48.6933 30.8571 48.1782 30.8571 47.5467C30.8571 46.9151 30.3482 46.4 29.7143 46.4H18.2857ZM34.2857 46.4C33.6518 46.4 33.1429 46.9151 33.1429 47.5467C33.1429 48.1782 33.6518 48.6933 34.2857 48.6933H48C48.6339 48.6933 49.1429 48.1782 49.1429 47.5467C49.1429 46.9151 48.6339 46.4 48 46.4H34.2857ZM14.8571 57.8667C14.2232 57.8667 13.7143 58.3818 13.7143 59.0133V61.3067C13.7143 61.9382 14.2232 62.4533 14.8571 62.4533C15.4911 62.4533 16 61.9382 16 61.3067V59.0133C16 58.3818 15.4911 57.8667 14.8571 57.8667ZM20.5714 57.8667C19.9375 57.8667 19.4286 58.3818 19.4286 59.0133V61.3067C19.4286 61.9382 19.9375 62.4533 20.5714 62.4533C21.2054 62.4533 21.7143 61.9382 21.7143 61.3067V59.0133C21.7143 58.3818 21.2054 57.8667 20.5714 57.8667ZM26.2857 57.8667C25.6518 57.8667 25.1429 58.3818 25.1429 59.0133V61.3067C25.1429 61.9382 25.6518 62.4533 26.2857 62.4533C26.9196 62.4533 27.4286 61.9382 27.4286 61.3067V59.0133C27.4286 58.3818 26.9196 57.8667 26.2857 57.8667ZM32 57.8667C31.3661 57.8667 30.8571 58.3818 30.8571 59.0133V61.3067C30.8571 61.9382 31.3661 62.4533 32 62.4533C32.6339 62.4533 33.1429 61.9382 33.1429 61.3067V59.0133C33.1429 58.3818 32.6339 57.8667 32 57.8667ZM37.7143 57.8667C37.0804 57.8667 36.5714 58.3818 36.5714 59.0133V61.3067C36.5714 61.9382 37.0804 62.4533 37.7143 62.4533C38.3482 62.4533 38.8571 61.9382 38.8571 61.3067V59.0133C38.8571 58.3818 38.3482 57.8667 37.7143 57.8667ZM43.4286 57.8667C42.7946 57.8667 42.2857 58.3818 42.2857 59.0133V61.3067C42.2857 61.9382 42.7946 62.4533 43.4286 62.4533C44.0625 62.4533 44.5714 61.9382 44.5714 61.3067V59.0133C44.5714 58.3818 44.0625 57.8667 43.4286 57.8667ZM49.1429 57.8667C48.5089 57.8667 48 58.3818 48 59.0133V61.3067C48 61.9382 48.5089 62.4533 49.1429 62.4533C49.7768 62.4533 50.2857 61.9382 50.2857 61.3067V59.0133C50.2857 58.3818 49.7768 57.8667 49.1429 57.8667ZM54.8571 57.8667C54.2232 57.8667 53.7143 58.3818 53.7143 59.0133V61.3067C53.7143 61.9382 54.2232 62.4533 54.8571 62.4533C55.4911 62.4533 56 61.9382 56 61.3067V59.0133C56 58.3818 55.4911 57.8667 54.8571 57.8667ZM60.5714 57.8667C59.9375 57.8667 59.4286 58.3818 59.4286 59.0133V61.3067C59.4286 61.9382 59.9375 62.4533 60.5714 62.4533C61.2054 62.4533 61.7143 61.9382 61.7143 61.3067V59.0133C61.7143 58.3818 61.2054 57.8667 60.5714 57.8667ZM66.2857 57.8667C65.6518 57.8667 65.1429 58.3818 65.1429 59.0133V61.3067C65.1429 61.9382 65.6518 62.4533 66.2857 62.4533C66.9196 62.4533 67.4286 61.9382 67.4286 61.3067V59.0133C67.4286 58.3818 66.9196 57.8667 66.2857 57.8667Z" fill="#FEFEFE"/>
</svg>

<svg width="80" height="80" fill="none" xmlns="http://www.w3.org/2000/svg"><path d="M11.429 12A3.44 3.44 0 0 0 8 15.44V63.6a3.44 3.44 0 0 0 3.429 3.44H68.57A3.44 3.44 0 0 0 72 63.6V15.44A3.44 3.44 0 0 0 68.571 12H11.43zm0 2.293H68.57c.63 0 1.143.515 1.143 1.147V63.6c0 .632-.513 1.147-1.143 1.147H11.43c-.63 0-1.143-.515-1.143-1.147V15.44c0-.632.513-1.147 1.143-1.147zM61.714 25.76c-.29 0-.584.112-.808.336l-3.763 3.776-1.478-1.483a1.14 1.14 0 0 0-1.616 0 1.149 1.149 0 0 0 0 1.622l2.286 2.293c.223.224.513.336.808.336.294 0 .585-.112.808-.336l4.571-4.587a1.149 1.149 0 0 0-.808-1.957zm-43.428 2.293c-.634 0-1.143.515-1.143 1.147s.509 1.147 1.143 1.147h20.571c.634 0 1.143-.515 1.143-1.147s-.509-1.147-1.143-1.147H18.286zm25.143 0c-.634 0-1.143.515-1.143 1.147s.509 1.147 1.143 1.147H48c.634 0 1.143-.515 1.143-1.147s-.51-1.147-1.143-1.147h-4.571zm18.285 6.88c-.29 0-.584.112-.808.336l-3.763 3.776-1.478-1.482a1.14 1.14 0 0 0-1.616 0 1.15 1.15 0 0 0 0 1.621l2.286 2.293c.223.224.513.336.808.336.294 0 .585-.112.808-.336l4.571-4.586a1.149 1.149 0 0 0-.808-1.958zm-43.428 2.294c-.634 0-1.143.515-1.143 1.146 0 .632.509 1.147 1.143 1.147H48c.634 0 1.143-.515 1.143-1.147 0-.631-.51-1.146-1.143-1.146H18.286zm43.428 6.88c-.29 0-.584.112-.808.336l-3.763 3.776-1.478-1.483a1.14 1.14 0 0 0-1.616 0 1.15 1.15 0 0 0 0 1.621l2.286 2.294c.223.224.513.336.808.336.294 0 .585-.112.808-.336l4.571-4.587a1.149 1.149 0 0 0-.808-1.957zM18.286 46.4c-.634 0-1.143.515-1.143 1.147 0 .631.509 1.146 1.143 1.146h11.428c.634 0 1.143-.515 1.143-1.146 0-.632-.509-1.147-1.143-1.147H18.286zm16 0c-.634 0-1.143.515-1.143 1.147 0 .631.509 1.146 1.143 1.146H48c.634 0 1.143-.515 1.143-1.146 0-.632-.51-1.147-1.143-1.147H34.286zM14.857 57.867c-.634 0-1.143.515-1.143 1.146v2.294a1.144 1.144 0 1 0 2.286 0v-2.294c0-.631-.509-1.146-1.143-1.146zm5.714 0c-.634 0-1.142.515-1.142 1.146v2.294a1.144 1.144 0 1 0 2.285 0v-2.294c0-.631-.509-1.146-1.143-1.146zm5.715 0c-.634 0-1.143.515-1.143 1.146v2.294a1.144 1.144 0 1 0 2.286 0v-2.294c0-.631-.51-1.146-1.143-1.146zm5.714 0c-.634 0-1.143.515-1.143 1.146v2.294a1.144 1.144 0 1 0 2.286 0v-2.294c0-.631-.51-1.146-1.143-1.146zm5.714 0c-.634 0-1.143.515-1.143 1.146v2.294a1.144 1.144 0 1 0 2.286 0v-2.294c0-.631-.509-1.146-1.143-1.146zm5.715 0c-.634 0-1.143.515-1.143 1.146v2.294a1.144 1.144 0 1 0 2.285 0v-2.294c0-.631-.508-1.146-1.142-1.146zm5.714 0c-.634 0-1.143.515-1.143 1.146v2.294a1.144 1.144 0 1 0 2.286 0v-2.294c0-.631-.51-1.146-1.143-1.146zm5.714 0c-.634 0-1.143.515-1.143 1.146v2.294a1.144 1.144 0 1 0 2.286 0v-2.294c0-.631-.509-1.146-1.143-1.146zm5.714 0c-.633 0-1.142.515-1.142 1.146v2.294a1.144 1.144 0 1 0 2.285 0v-2.294c0-.631-.509-1.146-1.143-1.146zm5.715 0c-.634 0-1.143.515-1.143 1.146v2.294a1.144 1.144 0 1 0 2.286 0v-2.294c0-.631-.51-1.146-1.143-1.146z" fill="#FEFEFE"/></svg>
